share/icons/draw-geometry-circle-from-three-points.svg

<?xml version="1.0" encoding="UTF-8" standalone="no"?>
<svg
   xmlns:dc="http://purl.org/dc/elements/1.1/"
   xmlns:cc="http://creativecommons.org/ns#"
   xmlns:rdf="http://www.w3.org/1999/02/22-rdf-syntax-ns#"
   xmlns:svg="http://www.w3.org/2000/svg"
   xmlns="http://www.w3.org/2000/svg"
   xmlns:sodipodi="http://sodipodi.sourceforge.net/DTD/sodipodi-0.dtd"
   xmlns:inkscape="http://www.inkscape.org/namespaces/inkscape"
   id="svg1"
   width="14.334814"
   height="14.009079"
   version="1.1"
   sodipodi:docname="draw-geometry-circle-from-three-points.svg"
   inkscape:version="0.92+devel (525c6c0c7e, 2017-10-06)">
  <metadata
     id="metadata168">
    <rdf:RDF>
      <cc:Work
         rdf:about="">
        <dc:format>image/svg+xml</dc:format>
        <dc:type
           rdf:resource="http://purl.org/dc/dcmitype/StillImage" />
      </cc:Work>
    </rdf:RDF>
  </metadata>
  <sodipodi:namedview
     id="base"
     showgrid="true"
     inkscape:document-rotation="0"
     inkscape:snap-grids="false"
     inkscape:snap-object-midpoints="false"
     inkscape:snap-page="true"
     inkscape:snap-bbox="true"
     inkscape:snap-nodes="false"
     inkscape:bbox-nodes="true"
     inkscape:bbox-paths="true"
     inkscape:zoom="17.381585"
     inkscape:cx="6.845203"
     inkscape:cy="2.2173247"
     inkscape:window-width="1366"
     inkscape:window-height="704"
     inkscape:window-x="0"
     inkscape:window-y="0"
     inkscape:window-maximized="1"
     inkscape:current-layer="svg1">
    <inkscape:grid
       id="GridFromPre046Settings"
       type="xygrid"
       originx="0pt"
       originy="0pt"
       spacingx="1pt"
       spacingy="1pt"
       color="#3f3fff"
       empcolor="#3f3fff"
       opacity="0.15"
       empopacity="0.38"
       empspacing="5" />
  </sodipodi:namedview>
  <defs
     id="defs3" />
  <g
     id="draw-geometry-circle-from-three-points"
     inkscape:label="circle_3pts"
     transform="translate(-644.22509,-88.189921)">
    <path
       d="m 658.0599,95.55848 c 0,0.80381 -0.1598,1.60731 -0.4674,2.34994 -0.3076,0.74262 -0.7628,1.4238 -1.3311,1.99217 -0.5683,0.56841 -1.2494,1.02351 -1.9918,1.33111 -0.7424,0.3075 -1.5456,0.4673 -2.3489,0.4673 -0.8033,-1e-4 -1.6061,-0.1599 -2.348,-0.4676 -0.7419,-0.3076 -1.4222,-0.7628 -1.9898,-1.33116 -0.5676,-0.56838 -1.0221,-1.2495 -1.3292,-1.99207 -0.3071,-0.74256 -0.4667,-1.54597 -0.4667,-2.34969 0,-0.80373 0.1596,-1.60714 0.4667,-2.3497 0.3071,-0.74256 0.7616,-1.42369 1.3292,-1.99207 0.5676,-0.56837 1.2479,-1.02353 1.9898,-1.33117 0.7419,-0.30764 1.5447,-0.46752 2.348,-0.46757 0.8033,-4e-5 1.6065,0.15974 2.3489,0.46731 0.7424,0.30758 1.4235,0.76271 1.9918,1.33108 0.5683,0.56838 1.0235,1.24955 1.3311,1.99218 0.3076,0.74262 0.4674,1.54612 0.4674,2.34994"
       id="path2526"
       inkscape:connector-curvature="0"
       style="fill:none;stroke:#5a5a5a;stroke-linecap:square;stroke-linejoin:bevel;stroke-miterlimit:4.26999998;stroke-dashoffset:23.20000076" />
    <rect
       height="2.5587261"
       id="use5845-6"
       style="color:#000000;fill:#ff2100;fill-opacity:0.39215692;fill-rule:evenodd;stroke:#d40000;stroke-width:0.64440769;stroke-linecap:round;stroke-linejoin:round;stroke-miterlimit:0"
       transform="translate(690.7581,-96.67858)"
       width="2.5502379"
       x="-41.81641"
       y="185.1907" />
    <rect
       height="2.5587261"
       id="use5845-6-1"
       style="color:#000000;fill:#ff2100;fill-opacity:0.39215692;fill-rule:evenodd;stroke:#d40000;stroke-width:0.64440769;stroke-linecap:round;stroke-linejoin:round;stroke-miterlimit:0"
       transform="translate(686.3637,-90.33765)"
       width="2.5502379"
       x="-41.81641"
       y="185.1907" />
    <rect
       height="2.5587261"
       id="use5845-6-1-9"
       style="color:#000000;fill:#ff2100;fill-opacity:0.39215692;fill-rule:evenodd;stroke:#d40000;stroke-width:0.64440769;stroke-linecap:round;stroke-linejoin:round;stroke-miterlimit:0"
       transform="translate(697.4319,-87.13558)"
       width="2.5502379"
       x="-41.81641"
       y="185.1907" />
  </g>
</svg>

<?xml version="1.0" encoding="UTF-8" standalone="no"?>
<svg
   xmlns:dc="http://purl.org/dc/elements/1.1/"
   xmlns:cc="http://web.resource.org/cc/"
   xmlns:rdf="http://www.w3.org/1999/02/22-rdf-syntax-ns#"
   xmlns:svg="http://www.w3.org/2000/svg"
   xmlns="http://www.w3.org/2000/svg"
   xmlns:xlink="http://www.w3.org/1999/xlink"
   xmlns:sodipodi="http://inkscape.sourceforge.net/DTD/sodipodi-0.dtd"
   xmlns:inkscape="http://www.inkscape.org/namespaces/inkscape"
   id="svg1"
   width="14.334814"
   height="14.009079"
  >
  <sodipodi:namedview
     id="base"
     showgrid="true"
     gridspacingy="1pt"
     gridspacingx="1pt"
     gridoriginy="0pt"
     gridoriginx="0pt"
  />
  <defs id="defs3">

  </defs>
<g id="draw-geometry-circle-from-three-points" inkscape:label="circle_3pts" transform="translate(70)">
  <path d="M 658.0599,95.55848 C 658.0599,96.36229 657.9001,97.16579 657.5925,97.90842 657.2849,98.65104 656.8297,99.33222 656.2614,99.90059 655.6931,100.469 655.012,100.9241 654.2696,101.2317 653.5272,101.5392 652.724,101.699 651.9207,101.699 651.1174,101.6989 650.3146,101.5391 649.5727,101.2314 648.8308,100.9238 648.1505,100.4686 647.5829,99.90024 647.0153,99.33186 646.5608,98.65074 646.2537,97.90817 645.9466,97.16561 645.787,96.3622 645.787,95.55848 645.787,94.75475 645.9466,93.95134 646.2537,93.20878 646.5608,92.46622 647.0153,91.78509 647.5829,91.21671 648.1505,90.64834 648.8308,90.19318 649.5727,89.88554 650.3146,89.5779 651.1174,89.41802 651.9207,89.41797 652.724,89.41793 653.5272,89.57771 654.2696,89.88528 655.012,90.19286 655.6931,90.64799 656.2614,91.21636 656.8297,91.78474 657.2849,92.46591 657.5925,93.20854 657.9001,93.95116 658.0599,94.75466 658.0599,95.55848" id="path2526" inkscape:connector-curvature="0" style="fill:none;stroke:#5a5a5a;stroke-linecap:square;stroke-linejoin:bevel;stroke-miterlimit:4.27;stroke-dashoffset:23.2000008"/>
  <rect height="2.558726" id="use5845-6" style="color:#000000;fill:#ff2100;fill-opacity:0.3921569;fill-rule:evenodd;stroke:#d40000;stroke-width:0.6444077;stroke-linecap:round;stroke-linejoin:round;stroke-miterlimit:0" transform="matrix(1,0,0,1,690.7581,-96.67858)" width="2.550238" x="-41.81641" y="185.1907"/>
  <rect height="2.558726" id="use5845-6-1" style="color:#000000;fill:#ff2100;fill-opacity:0.3921569;fill-rule:evenodd;stroke:#d40000;stroke-width:0.6444077;stroke-linecap:round;stroke-linejoin:round;stroke-miterlimit:0" transform="matrix(1,0,0,1,686.3637,-90.33765)" width="2.550238" x="-41.81641" y="185.1907"/>
  <rect height="2.558726" id="use5845-6-1-9" style="color:#000000;fill:#ff2100;fill-opacity:0.3921569;fill-rule:evenodd;stroke:#d40000;stroke-width:0.6444077;stroke-linecap:round;stroke-linejoin:round;stroke-miterlimit:0" transform="matrix(1,0,0,1,697.4319,-87.13558)" width="2.550238" x="-41.81641" y="185.1907"/>
</g>

</svg>
